X: 2
T: the Mason's Apron v.2
P: piffero primo a0735
O: Dan Moylan
%R: reel
F: http://ancients.sudburymuster.org/mus/snt/pdf/masonsC0.pdf
Z: 2020 John Chambers <jc:trillian.mit.edu>
M: 2/4
L: 1/16
K: A
cB |\
AFF2 FEFF | BAF2 BABF | B2d2 BABF | BABc dcB2 |\
AFF2 FEFF |
BAF2 BABF | BABc dcB2 | F2AE F2 :: E2 |\
AFA2 dfc2 | e2c2 dcBA |
B2d2 edB2 | Bcde fdcB |\
A2ce dcc2 | BAF2 BABF | BABc dcB2 | F2AE F2 :|
